urcenter/urcenter/img/partners/icon-1.svg

<svg width="218" height="119" viewBox="0 0 218 119" fill="none" xmlns="http://www.w3.org/2000/svg">
<g clip-path="url(#clip0)">
<path d="M134.69 45.8625L134.707 45.8379L134.717 45.8101L139.952 31.6216L144.667 32.4601L139.562 49.3973L128.528 62.1725L128.462 62.2486L128.467 62.349C128.498 62.9397 128.353 63.5263 128.05 64.0337C127.748 64.541 127.302 64.9462 126.769 65.1975C126.237 65.4488 125.641 65.535 125.06 65.445C124.478 65.3551 123.937 65.093 123.504 64.6923C123.071 64.2915 122.767 63.7702 122.63 63.1948C122.494 62.6193 122.531 62.0161 122.738 61.4622C122.944 60.9083 123.31 60.4289 123.789 60.0852C124.268 59.7415 124.838 59.549 125.426 59.5322L125.555 59.5285L125.627 59.4213L134.69 45.8625Z" fill="white" stroke="black" stroke-width="0.5"/>
<path d="M162.774 14.3395C162.774 19.5114 158.011 18.7291 152.137 18.7291C146.262 18.7291 141.5 19.5114 141.5 14.3395C141.5 9.16757 143.826 0 152.137 0C160.734 0 162.774 9.16758 162.774 14.3395Z" fill="#7247FF"/>
<path d="M182.113 59.4624L182.143 59.5144L182.193 59.5471C182.681 59.8631 183.066 60.3167 183.299 60.8514C183.533 61.3861 183.604 61.9781 183.503 62.5532C183.403 63.1283 183.137 63.6608 182.737 64.0842C182.337 64.5077 181.822 64.8032 181.256 64.9341C180.69 65.065 180.098 65.0254 179.555 64.8203C179.011 64.6152 178.539 64.2536 178.199 63.7805C177.859 63.3075 177.665 62.7441 177.641 62.1607C177.618 61.5774 177.767 61.0002 178.068 60.5013L178.156 60.3562L178.054 60.2211L167.636 46.4563L163.632 29.2235L168.391 28.6925L172.702 43.1911L172.711 43.2195L172.725 43.2451L182.113 59.4624Z" fill="white" stroke="black" stroke-width="0.5"/>
<path d="M183.973 114.466L173.356 85.364L180.436 84.3778L187.913 114.466H183.973Z" fill="white" stroke="black" stroke-width="0.5"/>
<path d="M141.99 85.9871L149.07 86.9734L138.454 116.075H134.513L141.99 85.9871Z" fill="white" stroke="black" stroke-width="0.5"/>
<path d="M160.508 22.7825L160.537 22.7798L160.564 22.7707L160.564 22.7707L160.564 22.7707L160.564 22.7706L160.566 22.77L160.575 22.7672L160.609 22.7561C160.64 22.7463 160.686 22.732 160.746 22.7145C160.864 22.6794 161.036 22.6313 161.245 22.5798C161.666 22.4765 162.235 22.3605 162.838 22.3071C163.443 22.2535 164.066 22.2645 164.601 22.405C165.133 22.5449 165.556 22.8068 165.804 23.2426C166.381 24.2565 167.397 26.3684 168.272 28.2365C168.709 29.1685 169.109 30.0366 169.4 30.6718C169.541 30.9773 169.655 31.2288 169.737 31.4076L164.236 32.2363L163.924 32.2832L164.041 32.576L169.286 45.7449L169.312 45.8092L169.367 45.851L169.367 45.8511L169.367 45.8511L169.367 45.8516L169.371 45.854L169.385 45.8651C169.397 45.8752 169.417 45.8907 169.443 45.9118C169.495 45.9539 169.572 46.0179 169.671 46.1043C169.869 46.2772 170.156 46.5393 170.506 46.8936C171.208 47.6023 172.163 48.6793 173.174 50.1472C175.195 53.0825 177.436 57.5822 178.305 63.8306C179.179 70.1244 180.054 75.8326 180.71 79.9673C181.038 82.0347 181.311 83.7088 181.502 84.8661C181.598 85.4448 181.673 85.8942 181.724 86.1991L181.761 86.4158C181.732 86.4204 181.7 86.4254 181.667 86.4308C181.442 86.4667 181.111 86.5191 180.686 86.5851C179.835 86.717 178.607 86.9032 177.096 87.1202C174.075 87.5543 169.925 88.1118 165.411 88.6052C156.496 89.58 146.204 90.2995 140.371 89.3437C140.372 89.3378 140.373 89.3318 140.374 89.3257C140.402 89.1595 140.445 88.9211 140.504 88.6339C140.621 88.0588 140.801 87.2912 141.052 86.5165C141.304 85.7393 141.623 84.9682 142.015 84.3783C142.411 83.7818 142.848 83.4182 143.322 83.3587L143.828 83.2952L143.468 82.9342C143.064 82.5283 142.914 82.1607 142.89 81.8475C142.865 81.5309 142.966 81.2356 143.126 80.9729C143.287 80.7095 143.501 80.4908 143.678 80.336C143.766 80.2592 143.843 80.1997 143.898 80.1599C143.925 80.14 143.947 80.125 143.961 80.1154L143.977 80.1049L143.98 80.1027L143.98 80.1026L143.981 80.1025L143.981 80.1024L143.981 80.1024L144.062 80.051L144.087 79.9583L149.36 60.9366L149.365 60.9189L149.368 60.9007L150.533 51.5361L150.538 51.4945L150.53 51.4534L150.285 51.5052C150.53 51.4534 150.53 51.4533 150.53 51.4532L150.53 51.4529L150.529 51.4514L150.528 51.446L150.524 51.425L150.506 51.3436C150.49 51.2724 150.467 51.1679 150.436 51.0345C150.375 50.7676 150.285 50.3848 150.169 49.9197C149.937 48.9899 149.6 47.7301 149.179 46.4117C148.759 45.0944 148.254 43.7126 147.687 42.5414C147.124 41.3813 146.48 40.3861 145.766 39.8872C144.549 39.0382 144.118 37.3875 144.01 35.8739C143.958 35.1269 143.985 34.4344 144.026 33.928C144.047 33.6752 144.07 33.4695 144.089 33.3277C144.098 33.2567 144.106 33.2018 144.112 33.165L144.118 33.1235L144.12 33.1135L144.12 33.1112L144.12 33.1108L144.12 33.1107L144.12 33.1107L144.173 32.8017L143.86 32.8192L138.898 33.096C138.901 33.0602 138.904 33.0214 138.908 32.9795C138.929 32.7253 138.962 32.3617 139.009 31.9253C139.104 31.0517 139.258 29.8892 139.493 28.7287C139.728 27.5646 140.042 26.4183 140.452 25.5687C140.657 25.1437 140.879 24.8071 141.116 24.5797C141.351 24.3548 141.588 24.2469 141.834 24.2469H145.04H145.051L145.063 24.2457L160.508 22.7825Z" fill="white" stroke="black" stroke-width="0.5"/>
<path d="M188.53 118.297L188.53 114.148L181.744 114.147H181.744H181.744L188.53 118.297ZM188.53 118.297L177.511 118.296C177.538 117.206 177.981 116.166 178.75 115.393C179.544 114.595 180.621 114.148 181.744 114.147L188.53 118.297Z" fill="white" stroke="black" stroke-width="0.5"/>
<path d="M139.572 118.297L139.572 114.148L132.786 114.147H132.786H132.786L139.572 118.297ZM139.572 118.297L128.553 118.296C128.58 117.206 129.023 116.166 129.793 115.393C130.587 114.595 131.663 114.148 132.786 114.147L139.572 118.297Z" fill="white" stroke="black" stroke-width="0.5"/>
<path d="M159.512 11.0099C159.512 14.8424 156.419 17.9475 152.605 17.9475C148.791 17.9475 145.698 14.8424 145.698 11.0099C145.698 7.17734 148.791 4.07227 152.605 4.07227C156.419 4.07227 159.512 7.17734 159.512 11.0099Z" fill="white" stroke="black" stroke-width="0.5"/>
<path d="M143.832 10.8279H146.663L147.912 7.31623L148.161 10.8279H149.514L150.243 8.77944L150.389 10.8279H160.442C160.442 8.80999 159.644 6.87469 158.223 5.44778C156.802 4.02087 154.875 3.21924 152.866 3.21924H151.408C149.399 3.21924 147.472 4.02087 146.051 5.44778C144.63 6.87469 143.832 8.80999 143.832 10.8279Z" fill="#7247FF"/>
<path d="M217.709 119H106.68C106.602 119 106.528 118.969 106.474 118.914C106.419 118.859 106.388 118.785 106.388 118.707C106.388 118.63 106.419 118.555 106.474 118.5C106.528 118.445 106.602 118.415 106.68 118.415H217.709C217.786 118.415 217.86 118.445 217.915 118.5C217.969 118.555 218 118.63 218 118.707C218 118.785 217.969 118.859 217.915 118.914C217.86 118.969 217.786 119 217.709 119Z" fill="#CBCBCB"/>
<path d="M125.382 9.97656H0V62.8486H125.382V9.97656Z" fill="#CBCBCB"/>
<path d="M2.62265 60.2149H122.759V12.6104H2.62265V60.2149Z" fill="white"/>
<path d="M104.246 29.7376V50.0375C104.245 50.3049 104.139 50.5613 103.951 50.7504C103.762 50.9395 103.507 51.046 103.241 51.0466H81.4893C81.223 51.046 80.9678 50.9395 80.7795 50.7504C80.5911 50.5613 80.4851 50.3049 80.4845 50.0375V29.7376C80.4847 29.47 80.5906 29.2135 80.779 29.0243C80.9674 28.8351 81.2229 28.7287 81.4893 28.7285H103.241C103.507 28.7287 103.763 28.8351 103.951 29.0243C104.14 29.2135 104.246 29.47 104.246 29.7376Z" fill="#6C63FF"/>
<path d="M104.246 29.7376V50.0375C104.245 50.3049 104.139 50.5613 103.951 50.7504C103.762 50.9395 103.507 51.046 103.241 51.0466H81.4893C81.223 51.046 80.9678 50.9395 80.7795 50.7504C80.5911 50.5613 80.4851 50.3049 80.4845 50.0375V29.7376C80.4847 29.47 80.5906 29.2135 80.779 29.0243C80.9674 28.8351 81.2229 28.7287 81.4893 28.7285H103.241C103.507 28.7287 103.763 28.8351 103.951 29.0243C104.14 29.2135 104.246 29.47 104.246 29.7376Z" fill="url(#paint0_linear)"/>
<path d="M93.9016 51.1487H90.828C90.5651 51.1518 90.3116 51.0501 90.1233 50.8658C89.9349 50.6815 89.827 50.4298 89.8232 50.1657V29.1081C89.827 28.844 89.9349 28.5923 90.1233 28.408C90.3116 28.2237 90.5651 28.122 90.828 28.1251H93.9016C94.1646 28.122 94.418 28.2237 94.6064 28.408C94.7947 28.5923 94.9027 28.844 94.9064 29.1081V50.1657C94.9027 50.4298 94.7947 50.6815 94.6064 50.8658C94.418 51.0501 94.1646 51.1518 93.9016 51.1487Z" fill="#3F3D56"/>
<path d="M91.732 22.3745C93.3117 23.7475 92.8129 26.9251 92.8129 26.9251C92.8129 26.9251 89.753 27.8765 88.1733 26.5034C86.5936 25.1304 87.0924 21.9528 87.0924 21.9528C87.0924 21.9528 90.1524 21.0014 91.732 22.3745Z" fill="#3F3D56"/>
<path d="M96.9788 26.2404C95.6165 27.831 92.4508 27.34 92.4508 27.34C92.4508 27.34 91.4938 24.2701 92.8561 22.6795C94.2184 21.0889 97.3842 21.5798 97.3842 21.5798C97.3842 21.5798 98.3412 24.6497 96.9788 26.2404Z" fill="#3F3D56"/>
<path opacity="0.2" d="M104.246 29.7376V33.1553L80.4845 33.0544V29.7376C80.4847 29.47 80.5906 29.2135 80.779 29.0243C80.9674 28.8351 81.2229 28.7287 81.4893 28.7285H103.241C103.507 28.7287 103.763 28.8351 103.951 29.0242C104.14 29.2134 104.246 29.47 104.246 29.7376Z" fill="black"/>
<path d="M106.804 31.8156C106.71 31.9398 106.588 32.0403 106.449 32.1092C106.31 32.1782 106.156 32.2138 106.001 32.2131L79.5211 32.1016C79.3892 32.101 79.2586 32.0744 79.1369 32.0231C79.0152 31.9719 78.9048 31.8971 78.8119 31.803C78.7189 31.7089 78.6454 31.5974 78.5954 31.4748C78.5454 31.3521 78.52 31.2208 78.5205 31.0883L78.5329 28.1205C78.534 27.8529 78.6409 27.5967 78.8301 27.4083C79.0193 27.2199 79.2752 27.1146 79.5417 27.1157H79.542L106.022 27.2272C106.154 27.2278 106.284 27.2544 106.406 27.3056C106.528 27.3568 106.638 27.4316 106.731 27.5257C106.824 27.6198 106.898 27.7314 106.948 27.854C106.998 27.9766 107.023 28.108 107.022 28.2405L107.01 31.2083C107.009 31.4279 106.937 31.6413 106.804 31.8156Z" fill="#6C63FF"/>
<path d="M106.804 31.8156C106.71 31.9398 106.588 32.0403 106.449 32.1092C106.31 32.1782 106.156 32.2138 106.001 32.2131L79.5211 32.1016C79.3892 32.101 79.2586 32.0744 79.1369 32.0231C79.0152 31.9719 78.9048 31.8971 78.8119 31.803C78.7189 31.7089 78.6454 31.5974 78.5954 31.4748C78.5454 31.3521 78.52 31.2208 78.5205 31.0883L78.5329 28.1205C78.534 27.8529 78.6409 27.5967 78.8301 27.4083C79.0193 27.2199 79.2752 27.1146 79.5417 27.1157H79.542L106.022 27.2272C106.154 27.2278 106.284 27.2544 106.406 27.3056C106.528 27.3568 106.638 27.4316 106.731 27.5257C106.824 27.6198 106.898 27.7314 106.948 27.854C106.998 27.9766 107.023 28.108 107.022 28.2405L107.01 31.2083C107.009 31.4279 106.937 31.6413 106.804 31.8156Z" fill="url(#paint1_linear)"/>
<path d="M89.8868 26.9221L89.8654 32.2642L94.9487 32.2846L94.97 26.9426L89.8868 26.9221Z" fill="#3F3D56"/>
<path d="M47.8963 28.4346H18.5021V30.7912H47.8963V28.4346Z" fill="#E5E5E5"/>
<path d="M63.8932 37.0308H18.5021V39.3874H63.8932V37.0308Z" fill="url(#paint2_linear)"/>
<path d="M55.4948 45.1289H18.5021V47.4856H55.4948V45.1289Z" fill="#E5E5E5"/>
<path d="M36.786 101.994C37.9293 102.398 39.1568 102.499 40.3503 102.288C41.5437 102.077 42.663 101.561 43.6001 100.789C45.9867 98.7774 46.7351 95.4642 47.3438 92.3956L49.1447 83.3188L45.3744 85.9258C42.6629 87.8006 39.8905 89.7356 38.0133 92.4511C36.136 95.1666 35.317 98.8738 36.8249 101.812" fill="#E6E6E6"/>
<path d="M37.3682 113.616C36.8937 110.144 36.4054 106.627 36.7391 103.118C37.0348 100.002 37.9816 96.9582 39.9092 94.4618C40.9323 93.1395 42.1773 92.0066 43.5882 91.1139C43.956 90.8808 44.2946 91.4661 43.9284 91.6983C41.4871 93.2475 39.5989 95.5353 38.5359 98.2317C37.3619 101.23 37.1734 104.499 37.3756 107.684C37.4978 109.61 37.7576 111.524 38.0184 113.435C38.039 113.522 38.0262 113.613 37.9825 113.69C37.9388 113.767 37.8675 113.825 37.783 113.852C37.6968 113.875 37.6049 113.863 37.5273 113.819C37.4497 113.775 37.3926 113.701 37.3684 113.615L37.3682 113.616Z" fill="#F2F2F2"/>
<path d="M40.7838 108.045C41.2741 108.793 41.948 109.402 42.7408 109.813C43.5335 110.224 44.4183 110.423 45.3099 110.391C47.6017 110.282 49.5115 108.676 51.2306 107.152L56.3164 102.642L52.9506 102.481C50.53 102.364 48.047 102.255 45.7415 103.005C43.436 103.756 41.3098 105.559 40.8883 107.956" fill="#E6E6E6"/>
<path d="M36.0268 115.612C38.3114 111.552 40.9611 107.041 45.6961 105.599C47.0126 105.199 48.393 105.056 49.763 105.177C50.1948 105.214 50.087 105.883 49.656 105.845C47.3595 105.654 45.0675 106.263 43.1657 107.57C41.3357 108.821 39.9107 110.56 38.7048 112.404C37.966 113.534 37.3043 114.711 36.6426 115.887C36.4312 116.263 35.8129 115.992 36.0268 115.612Z" fill="#F2F2F2"/>
<path d="M60.9275 116.366H21.2951C21.2178 116.366 21.1437 116.335 21.0891 116.28C21.0344 116.225 21.0037 116.151 21.0037 116.073C21.0037 115.996 21.0344 115.921 21.0891 115.866C21.1437 115.812 21.2178 115.781 21.2951 115.781H60.9275C61.0048 115.781 61.0789 115.812 61.1336 115.866C61.1882 115.921 61.2189 115.996 61.2189 116.073C61.2189 116.151 61.1882 116.225 61.1336 116.28C61.0789 116.335 61.0048 116.366 60.9275 116.366Z" fill="#CBCBCB"/>
</g>
<defs>
<linearGradient id="paint0_linear" x1="80.3563" y1="29.8222" x2="105.122" y2="30.0071" gradientUnits="userSpaceOnUse">
<stop stop-color="#4614E8"/>
<stop offset="1" stop-color="#BCA7FF"/>
</linearGradient>
<linearGradient id="paint1_linear" x1="78.3668" y1="27.3655" x2="108.029" y2="28.5285" gradientUnits="userSpaceOnUse">
<stop stop-color="#4614E8"/>
<stop offset="1" stop-color="#BCA7FF"/>
</linearGradient>
<linearGradient id="paint2_linear" x1="18.2573" y1="37.1462" x2="64.7215" y2="43.4215" gradientUnits="userSpaceOnUse">
<stop stop-color="#4614E8"/>
<stop offset="1" stop-color="#BCA7FF"/>
</linearGradient>
<clipPath id="clip0">
<rect width="218" height="119" fill="white"/>
</clipPath>
</defs>
</svg>

<svg width="218" height="119" fill="none" xmlns="http://www.w3.org/2000/svg"><g clip-path="url(#clip0)"><path d="M134.69 45.862l.017-.024.01-.028 5.235-14.188 4.715.838-5.105 16.937-11.034 12.776-.066.076.005.1a2.981 2.981 0 01-1.698 2.849 2.947 2.947 0 01-3.265-.506 2.98 2.98 0 01.285-4.607 2.953 2.953 0 011.637-.553l.129-.003.072-.108 9.063-13.559z" fill="#fff" stroke="#000" stroke-width=".5"/><path d="M162.774 14.34c0 5.171-4.763 4.39-10.637 4.39-5.875 0-10.637.781-10.637-4.39C141.5 9.168 143.826 0 152.137 0c8.597 0 10.637 9.168 10.637 14.34z" fill="#7247FF"/><path d="M182.113 59.462l.03.052.05.033a2.965 2.965 0 011.31 3.006 2.969 2.969 0 01-.766 1.531 2.952 2.952 0 01-3.182.736 2.953 2.953 0 01-1.356-1.04 2.986 2.986 0 01-.558-1.62 2.986 2.986 0 01.427-1.659l.088-.145-.102-.135-10.418-13.765-4.004-17.233 4.759-.53 4.311 14.498.009.028.014.026 9.388 16.217zm1.86 55.004l-10.617-29.102 7.08-.986 7.477 30.088h-3.94zM141.99 85.987l7.08.986-10.616 29.102h-3.941l7.477-30.088z" fill="#fff" stroke="#000" stroke-width=".5"/><path d="M160.508 22.782l.029-.002.027-.01h.002l.009-.003.034-.01.137-.043c.118-.035.29-.083.499-.134.421-.103.99-.22 1.593-.273.605-.053 1.228-.042 1.763.098.532.14.955.402 1.203.838.577 1.014 1.593 3.125 2.468 4.994.437.932.837 1.8 1.128 2.435.141.305.255.557.337.736l-5.501.828-.312.047.117.293 5.245 13.169.026.064.055.042h0l.004.003.014.011.058.047c.052.042.129.106.228.192.198.173.485.435.835.79a23.913 23.913 0 012.668 3.253c2.021 2.936 4.262 7.435 5.131 13.684a855.734 855.734 0 003.419 22.368l.037.217-.094.015-.981.154a354.222 354.222 0 01-15.275 2.02c-8.915.975-19.207 1.694-25.04.739l.003-.018c.028-.166.071-.405.13-.692.117-.575.297-1.343.548-2.118.252-.777.571-1.548.963-2.138.396-.596.833-.96 1.307-1.02l.506-.063-.36-.36c-.404-.407-.554-.774-.578-1.088-.025-.316.076-.611.236-.874a3.15 3.15 0 01.772-.813l.063-.045.016-.01.003-.002h.001l.081-.052.025-.093 5.273-19.021.005-.018.003-.018 1.165-9.365.005-.041-.008-.042-.245.052.245-.052h0l-.001-.002-.001-.005-.004-.021-.018-.081-.07-.31a57.576 57.576 0 00-1.257-4.623c-.42-1.317-.925-2.698-1.492-3.87-.563-1.16-1.207-2.155-1.921-2.654-1.217-.849-1.648-2.5-1.756-4.013a13.195 13.195 0 01.102-2.709l.006-.041.002-.01v-.003h0l.053-.31-.313.018-4.962.277.01-.116c.021-.255.054-.618.101-1.055a36.33 36.33 0 01.484-3.196c.235-1.164.549-2.31.959-3.16.205-.425.427-.762.664-.99.235-.224.472-.332.718-.332h3.217l.012-.001 15.445-1.463zm28.022 95.515v-4.149l-6.786-.001h0l6.786 4.15zm0 0l-11.019-.001c.027-1.09.47-2.13 1.239-2.903a4.227 4.227 0 012.994-1.246l6.786 4.15zm-48.958 0v-4.149l-6.786-.001h0l6.786 4.15zm0 0l-11.019-.001c.027-1.09.47-2.13 1.24-2.903a4.225 4.225 0 012.993-1.246l6.786 4.15zm19.94-107.287c0 3.832-3.093 6.938-6.907 6.938s-6.907-3.106-6.907-6.938c0-3.833 3.093-6.938 6.907-6.938s6.907 3.105 6.907 6.938z" fill="#fff" stroke="#000" stroke-width=".5"/><path d="M143.832 10.828h2.831l1.249-3.512.249 3.512h1.353l.729-2.049.146 2.049h10.053a7.624 7.624 0 00-2.219-5.38 7.56 7.56 0 00-5.357-2.229h-1.458a7.56 7.56 0 00-5.357 2.229 7.624 7.624 0 00-2.219 5.38z" fill="#7247FF"/><path d="M217.709 119H106.68a.292.292 0 010-.585h111.029a.29.29 0 01.291.292.292.292 0 01-.291.293zM125.382 9.977H0v52.872h125.382V9.977z" fill="#CBCBCB"/><path d="M2.623 60.215h120.136V12.61H2.623v47.605z" fill="#fff"/><path d="M104.246 29.738v20.3a1.007 1.007 0 01-1.005 1.01H81.489a1.013 1.013 0 01-1.005-1.01v-20.3a1.012 1.012 0 011.005-1.01h21.752a1.009 1.009 0 011.005 1.01z" fill="#6C63FF"/><path d="M104.246 29.738v20.3a1.007 1.007 0 01-1.005 1.01H81.489a1.013 1.013 0 01-1.005-1.01v-20.3a1.012 1.012 0 011.005-1.01h21.752a1.009 1.009 0 011.005 1.01z" fill="url(#paint0_linear)"/><path d="M93.902 51.149h-3.074a1 1 0 01-1.005-.983V29.108a1 1 0 011.005-.983h3.074a.991.991 0 011.004.983v21.058a1 1 0 01-1.004.983zm-2.17-28.774c1.58 1.372 1.08 4.55 1.08 4.55s-3.059.951-4.639-.422-1.08-4.55-1.08-4.55 3.06-.952 4.639.422z" fill="#3F3D56"/><path d="M96.979 26.24c-1.362 1.591-4.528 1.1-4.528 1.1s-.957-3.07.405-4.66c1.362-1.591 4.528-1.1 4.528-1.1s.957 3.07-.405 4.66z" fill="#3F3D56"/><path opacity=".2" d="M104.246 29.738v3.417l-23.761-.1v-3.317a1.012 1.012 0 011.004-1.01h21.752a1.01 1.01 0 011.005 1.01z" fill="#000"/><path d="M106.804 31.816a1.006 1.006 0 01-.803.397l-26.48-.111a1 1 0 01-.926-.627 1.014 1.014 0 01-.075-.387l.013-2.968a1.011 1.011 0 011.009-1.004l26.48.111a1.002 1.002 0 011 1.014l-.012 2.967c-.001.22-.073.433-.206.608z" fill="#6C63FF"/><path d="M106.804 31.816a1.006 1.006 0 01-.803.397l-26.48-.111a1 1 0 01-.926-.627 1.014 1.014 0 01-.075-.387l.013-2.968a1.011 1.011 0 011.009-1.004l26.48.111a1.002 1.002 0 011 1.014l-.012 2.967c-.001.22-.073.433-.206.608z" fill="url(#paint1_linear)"/><path d="M89.887 26.922l-.022 5.342 5.084.02.021-5.341-5.083-.02z" fill="#3F3D56"/><path d="M47.896 28.435H18.502v2.356h29.394v-2.356z" fill="#E5E5E5"/><path d="M63.893 37.03h-45.39v2.357h45.39v-2.356z" fill="url(#paint2_linear)"/><path d="M55.495 45.129H18.502v2.357h36.993v-2.357z" fill="#E5E5E5"/><path d="M36.786 101.994a7.025 7.025 0 006.814-1.205c2.387-2.012 3.135-5.325 3.744-8.393l1.8-9.077-3.77 2.607c-2.711 1.875-5.483 3.81-7.36 6.525-1.878 2.716-2.697 6.423-1.19 9.361" fill="#E6E6E6"/><path d="M37.368 113.616c-.474-3.472-.963-6.989-.629-10.498.296-3.116 1.243-6.16 3.17-8.656a14.36 14.36 0 013.68-3.348c.367-.233.706.352.34.584a13.676 13.676 0 00-5.393 6.534c-1.174 2.998-1.363 6.267-1.16 9.452.122 1.926.382 3.84.642 5.751a.352.352 0 01-.235.417.34.34 0 01-.415-.237v.001z" fill="#F2F2F2"/><path d="M40.784 108.045a5.205 5.205 0 001.957 1.768c.792.411 1.677.61 2.569.578 2.292-.109 4.201-1.715 5.92-3.239l5.086-4.51-3.365-.161c-2.421-.117-4.904-.226-7.21.524-2.305.751-4.431 2.554-4.853 4.951" fill="#E6E6E6"/><path d="M36.027 115.612c2.284-4.06 4.934-8.571 9.67-10.013 1.316-.4 2.696-.543 4.066-.422.432.037.324.706-.107.668a9.995 9.995 0 00-6.49 1.725c-1.83 1.251-3.255 2.99-4.461 4.834-.739 1.13-1.4 2.307-2.062 3.483-.212.376-.83.105-.616-.275z" fill="#F2F2F2"/><path d="M60.928 116.366H21.294a.29.29 0 01-.291-.293c0-.077.03-.152.085-.207a.294.294 0 01.206-.085h39.633c.077 0 .15.031.206.085a.295.295 0 010 .414.29.29 0 01-.206.086z" fill="#CBCBCB"/></g><defs><linearGradient id="paint0_linear" x1="80.356" y1="29.822" x2="105.122" y2="30.007" gradientUnits="userSpaceOnUse"><stop stop-color="#4614E8"/><stop offset="1" stop-color="#BCA7FF"/></linearGradient><linearGradient id="paint1_linear" x1="78.367" y1="27.366" x2="108.029" y2="28.529" gradientUnits="userSpaceOnUse"><stop stop-color="#4614E8"/><stop offset="1" stop-color="#BCA7FF"/></linearGradient><linearGradient id="paint2_linear" x1="18.257" y1="37.146" x2="64.722" y2="43.422" gradientUnits="userSpaceOnUse"><stop stop-color="#4614E8"/><stop offset="1" stop-color="#BCA7FF"/></linearGradient><clipPath id="clip0"><path fill="#fff" d="M0 0h218v119H0z"/></clipPath></defs></svg>
